<?xml version="1.0" encoding="UTF-8"?>
<map version="1.10" tiledversion="1.12.2-2-geb83ddb9" orientation="orthogonal" renderorder="right-down" width="30" height="20" tilewidth="16" tileheight="16" infinite="0" nextlayerid="6" nextobjectid="1">
 <tileset firstgid="1" source="tileset.tsx"/>
 <tileset firstgid="295" source="backgrounds.tsx"/>
 <layer id="3" name="Background" width="30" height="20">
  <data encoding="csv">
324,324,324,402,403,404,405,406,324,324,324,324,324,324,324,324,325,326,327,328,302,295,296,297,298,299,300,301,302,303,
363,363,363,441,442,443,444,445,363,363,363,363,363,363,363,324,324,324,324,324,325,326,327,328,328,328,328,328,303,304,
402,402,402,480,481,482,483,484,402,402,402,402,402,402,324,325,326,327,328,328,328,328,328,328,367,367,367,367,302,303,
441,441,441,519,520,521,522,523,441,441,441,441,441,441,324,325,326,327,328,367,367,367,367,367,324,325,326,327,328,328,
480,480,480,558,559,560,561,562,480,480,480,480,480,480,324,325,330,331,332,333,306,307,308,309,310,311,312,313,328,367,
519,519,519,597,598,599,600,601,519,519,519,519,519,324,325,326,369,370,371,372,345,346,347,348,349,350,351,352,367,406,
480,481,482,636,637,638,639,640,441,442,443,444,445,324,325,326,408,409,410,411,384,385,386,387,388,389,390,391,406,445,
519,520,521,675,676,677,678,679,480,481,482,483,484,324,325,326,447,448,449,450,423,424,425,426,427,428,429,430,445,484,
744,745,746,714,715,716,717,718,519,520,521,522,523,324,324,325,486,487,488,489,462,463,464,465,466,467,468,469,484,523,
0,0,0,753,754,755,756,757,0,0,0,0,0,363,324,325,525,526,527,528,501,502,503,504,505,506,507,508,523,523,
0,0,32,32,34,35,32,32,40,41,32,58,59,402,324,324,564,565,566,567,540,541,542,543,544,545,546,547,522,523,
0,0,32,32,55,56,32,32,61,62,32,58,59,441,363,363,603,604,605,606,579,580,581,582,583,584,585,586,522,523,
0,0,53,53,76,77,53,53,82,83,53,79,80,480,402,402,642,643,644,645,618,619,620,621,622,623,624,625,522,523,
0,0,74,74,97,98,74,74,103,104,74,100,101,519,441,441,681,682,683,684,657,658,659,660,661,662,663,664,521,522,
0,0,32,32,34,35,32,32,32,32,32,58,59,724,480,480,720,721,722,723,696,697,698,699,700,701,702,703,521,522,
0,0,0,0,0,0,0,0,0,0,0,0,0,0,519,519,759,760,761,762,735,736,737,738,739,740,741,742,521,522,
0,0,0,0,0,0,0,0,0,0,0,0,0,0,0,0,0,0,0,295,296,297,298,735,736,737,738,739,740,741,
0,0,0,0,0,0,0,0,0,0,0,0,0,0,0,0,0,0,0,0,0,0,0,0,0,0,0,0,0,0,
0,0,0,0,0,0,0,0,0,0,0,0,0,0,0,0,0,0,0,0,0,0,0,0,0,0,0,0,0,0,
0,0,0,0,0,0,0,0,0,0,0,0,0,0,0,0,0,0,0,0,0,0,0,0,0,0,0,0,0,0
</data>
 </layer>
 <layer id="1" name="Platform" width="30" height="20" locked="1">
  <data encoding="csv">
626,626,626,626,626,626,626,626,626,626,626,626,626,0,626,0,0,0,0,0,0,0,0,0,0,0,0,0,0,0,
626,626,626,626,626,626,626,626,626,626,626,626,626,626,626,626,0,0,0,0,0,0,0,0,0,0,0,0,0,0,
626,626,626,626,626,626,626,626,626,626,626,626,626,626,626,626,0,0,0,0,0,0,0,0,0,0,0,0,0,0,
626,626,626,626,626,626,626,626,626,626,626,626,626,626,626,626,626,626,0,0,0,0,0,0,0,0,0,0,0,0,
626,626,626,626,626,626,626,626,626,626,626,626,626,626,0,0,0,0,0,0,0,0,0,0,0,0,0,0,0,0,
626,626,626,626,626,626,626,626,626,626,626,626,626,626,626,0,0,0,0,0,0,0,0,0,0,0,0,0,0,0,
626,626,626,626,626,626,626,626,626,626,626,626,626,0,0,0,0,0,0,0,0,0,0,0,0,0,0,0,0,0,
626,626,626,626,626,626,626,626,626,626,626,626,626,0,0,0,0,0,0,0,0,0,0,0,0,0,0,0,0,0,
44,46,47,49,44,46,47,49,44,46,47,49,44,0,0,0,0,0,0,0,0,0,0,0,0,0,0,0,0,0,
65,67,68,70,65,67,68,70,65,67,68,70,65,0,0,0,0,0,0,0,0,0,0,0,0,0,0,0,0,0,
149,150,137,137,137,137,137,137,137,137,137,137,137,0,0,0,0,0,0,0,0,0,0,0,0,0,0,0,0,0,
170,171,137,137,137,137,137,137,137,137,137,137,137,121,229,229,0,0,0,0,0,0,0,0,0,0,0,0,0,0,
152,153,137,137,137,137,137,137,137,137,137,137,137,229,229,0,0,0,0,0,0,0,0,92,93,0,0,0,0,0,
173,174,137,137,137,137,137,137,137,137,137,137,137,229,229,0,0,0,92,93,0,0,0,113,114,0,0,0,0,0,
145,146,213,215,216,217,211,212,213,215,216,217,219,220,221,0,0,0,113,114,0,0,0,134,135,0,0,0,92,93,
166,167,234,236,237,238,232,233,234,236,237,238,240,241,242,215,216,217,134,135,0,0,224,155,156,226,0,0,113,114,
30,30,30,257,258,259,253,254,255,257,258,259,261,262,263,236,237,238,155,156,223,224,245,176,177,247,226,227,134,135,
107,107,107,107,107,107,107,107,107,107,107,107,107,107,107,257,258,259,176,177,244,245,107,107,107,107,247,248,155,156,
107,107,107,107,107,107,107,107,107,107,107,107,107,107,107,107,107,107,107,107,107,107,107,107,107,107,107,107,176,177,
107,107,107,107,107,107,107,107,107,107,107,107,107,107,107,107,107,107,107,107,107,107,107,107,107,107,107,107,107,107
</data>
 </layer>
</map>
